X: 40835
T: Tralee Gaol
R: polka
M: 2/4
K: Edorian
|:BE EF/A/|BA FA|BE E/G/F/E/|DE FA|
BE EF/A/|BA FA|A/F/A/B/ dF|E2 E2:|
|:ee ed/e/|fe dB|A/F/A/B/ de|fe dB|
ee ed/e/|fe dB|A/F/A/B/ dF|E2 E2:|

